brandFactory_export/1.Light/Gimnasio gym_1Light.svg

<?xml version="1.0" encoding="UTF-8"?>
<svg width="24px" height="24px" viewBox="0 0 24 24" version="1.1" xmlns="http://www.w3.org/2000/svg" xmlns:xlink="http://www.w3.org/1999/xlink">
    <title>1.Light/Gimnasio gym_1Light</title>
    <g id="Symbols" stroke="none" stroke-width="1" fill="none" fill-rule="evenodd">
        <g id="1.Light/Gimnasio-gym_1Light" fill="#5CB615" fill-rule="nonzero">
            <path d="M5.13277311,4.00336134 C5.71002801,4.00336134 6.18772736,4.45428945 6.24885503,5.02819795 L6.25546218,5.15294118 L6.25546218,9.36806723 L6.30588235,9.35672269 L6.30588235,9.35672269 L6.35630252,9.34789916 L17.2672269,9.34789916 L17.3142857,9.35672269 L17.3142857,9.35672269 L17.3613445,9.36806723 L17.3613445,5.15294118 C17.3613445,4.56 17.8005602,4.07247059 18.3619755,4.01010196 L18.4840336,4.00336134 L19.9294118,4.00336134 C20.5066667,4.00336134 20.984366,4.45428945 21.0454937,5.02819795 L21.0521008,5.15294118 L21.0521008,5.87226891 L22.5008403,5.87226891 C23.0812325,5.87226891 23.5562129,6.32026891 23.6169641,6.89651989 L23.6235294,7.02184874 L23.6235294,16.7394958 C23.6235294,17.3292997 23.1872418,17.81662 22.6234841,17.8789747 L22.5008403,17.8857143 L21.0521008,17.8857143 L21.0521008,18.605042 C21.0521008,19.1979832 20.6128852,19.6855126 20.0514699,19.7478812 L19.9294118,19.7546218 L18.4840336,19.7546218 C17.9067787,19.7546218 17.4290794,19.3066218 17.3679517,18.7303709 L17.3613445,18.605042 L17.3613445,14.389916 L17.3155462,14.4012605 L17.3155462,14.4012605 L17.2672269,14.410084 L6.35630252,14.410084 L6.30588235,14.4012605 L6.30588235,14.4012605 L6.25546218,14.389916 L6.25546218,18.605042 C6.25546218,19.1979832 5.8162465,19.6855126 5.25483125,19.7478812 L5.13277311,19.7546218 L3.68739496,19.7546218 C3.11014006,19.7546218 2.63244071,19.3066218 2.57131304,18.7303709 L2.56470588,18.605042 L2.56470588,17.8857143 L1.12268908,17.8857143 C0.542296919,17.8857143 0.0673165266,17.4406424 0.00656532839,16.8647818 L3.1540992e-11,16.7394958 L3.1540992e-11,7.01848739 C3.1540992e-11,6.42868347 0.436287582,5.94136321 1.00004532,5.87900853 L1.12268908,5.87226891 L2.56470588,5.87226891 L2.56470588,5.15294118 C2.56470588,4.56 3.00392157,4.07247059 3.56533682,4.01010196 L3.68739496,4.00336134 L5.13277311,4.00336134 Z M19.9327731,5.15294118 L18.487395,5.15294118 L18.487395,18.605042 L19.9327731,18.605042 L19.9327731,5.15294118 Z M5.13277311,5.15294118 L3.68739496,5.15294118 L3.68739496,7.00168067 L3.68907563,7.00882353 L3.6907563,7.01848739 L3.6907563,16.7361345 L3.68739496,16.7563025 L3.68739496,18.605042 L5.13277311,18.605042 L5.13277311,5.15294118 Z M22.5008403,7.02184874 L21.0554622,7.02184874 L21.0554622,16.7394958 L22.5008403,16.7394958 L22.5008403,7.02184874 Z M2.56470588,7.02184874 L1.12268908,7.02184874 L1.12268908,16.7394958 L2.56470588,16.7394958 L2.56470588,7.02184874 Z M17.2672269,10.497479 L6.35630252,10.497479 L6.35630252,13.2605042 L17.2672269,13.2605042 L17.2672269,10.497479 Z" id="Gimnasio-gym_1Light"></path>
        </g>
    </g>
</svg>

<svg width="24" height="24" viewBox="0 0 24 24" xmlns="http://www.w3.org/2000/svg"><path d="M5.133 4.003c.577 0 1.055.451 1.116 1.025l.006.125v4.215l.05-.011.051-.01h10.911l.047.01.047.011V5.153c0-.593.44-1.08 1.001-1.143l.122-.007h1.445c.578 0 1.055.451 1.116 1.025l.007.125v.72h1.449c.58 0 1.055.447 1.116 1.024l.007.125v9.717c0 .59-.437 1.078-1 1.14l-.123.007h-1.449v.719c0 .593-.44 1.08-1 1.143l-.123.007h-1.445a1.134 1.134 0 01-1.116-1.025l-.007-.125V14.39l-.045.011-.049.01H6.357l-.051-.01-.05-.011v4.215c0 .593-.44 1.08-1.001 1.143l-.122.007H3.687a1.134 1.134 0 01-1.116-1.025l-.006-.125v-.72H1.123c-.58 0-1.056-.444-1.116-1.02L0 16.739V7.02c0-.59.436-1.078 1-1.14l.123-.007h1.442v-.72c0-.592.439-1.08 1-1.142l.122-.007h1.446zm14.8 1.15h-1.446v13.452h1.446V5.153zm-14.8 0H3.687v1.849l.002.007.002.01v9.717l-.004.02v1.849h1.446V5.153zM22.5 7.022h-1.446v9.717h1.446V7.022zm-19.936 0H1.123v9.717h1.442V7.022zm14.702 3.475H6.357v2.764h10.91v-2.764z" fill="#5CB615" fill-rule="nonzero"/></svg>
